X: 14308
T: Gallagher's Frolics
R: jig
M: 6/8
K: Adorian
A^GA cBA|e^de ged|e/f/ge edG|Bec dBG|
A^GA cBA|e^de ged|edc BAB|cA^G A2:|
A2 B cBA|c2 d ecA|G2 B dBG|dBG BA^G|
A2 B cBA|GBA G2 D|EDC B,^A,B,|CA,^G, A,2:|

